mobile/24/svg/tab-number-24.svg

<svg width="24" height="24" viewBox="0 0 24 24" fill="none" xmlns="http://www.w3.org/2000/svg">
<path fill-rule="evenodd" clip-rule="evenodd" d="M2 6.5C2 5.11975 3.11975 4 4.5 4H19.5C20.8802 4 22 5.11975 22 6.5V16.5C22 17.8802 20.8802 19 19.5 19H4.5C3.11975 19 2 17.8802 2 16.5V6.5ZM4.5 5.75C4.08625 5.75 3.75 6.08625 3.75 6.5V16.5C3.75 16.9138 4.08625 17.25 4.5 17.25H19.5C19.9138 17.25 20.25 16.9138 20.25 16.5V6.5C20.25 6.08625 19.9138 5.75 19.5 5.75H4.5Z" fill="black"/>
<path d="M8.64123 15.0994C10.2819 15.0994 11.4608 14.2223 11.4644 13.0433C11.4608 12.1342 10.7613 11.392 9.88768 11.2464V11.1967C10.6476 11.0405 11.1909 10.3835 11.1945 9.58452C11.1909 8.45881 10.1114 7.62784 8.64123 7.62784C7.16751 7.62784 6.08796 8.45881 6.09151 9.58452C6.08796 10.38 6.62418 11.0405 7.39833 11.1967V11.2464C6.51055 11.392 5.81808 12.1342 5.82163 13.0433C5.81808 14.2223 7.0006 15.0994 8.64123 15.0994ZM8.64123 13.9702C7.90969 13.9702 7.41964 13.5369 7.41964 12.9226C7.41964 12.294 7.93455 11.8395 8.64123 11.8395C9.34435 11.8395 9.86282 12.294 9.86282 12.9226C9.86282 13.5405 9.36921 13.9702 8.64123 13.9702ZM8.64123 10.7209C8.02688 10.7209 7.59009 10.3196 7.59009 9.74432C7.59009 9.17614 8.01978 8.78551 8.64123 8.78551C9.25913 8.78551 9.69237 9.17969 9.69237 9.74432C9.69237 10.3196 9.25202 10.7209 8.64123 10.7209ZM15.3526 15.0994C16.9932 15.0994 18.1722 14.2223 18.1757 13.0433C18.1722 12.1342 17.4726 11.392 16.599 11.2464V11.1967C17.3589 11.0405 17.9023 10.3835 17.9058 9.58452C17.9023 8.45881 16.8227 7.62784 15.3526 7.62784C13.8788 7.62784 12.7993 8.45881 12.8028 9.58452C12.7993 10.38 13.3355 11.0405 14.1097 11.1967V11.2464C13.2219 11.392 12.5294 12.1342 12.533 13.0433C12.5294 14.2223 13.7119 15.0994 15.3526 15.0994ZM15.3526 13.9702C14.621 13.9702 14.131 13.5369 14.131 12.9226C14.131 12.294 14.6459 11.8395 15.3526 11.8395C16.0557 11.8395 16.5741 12.294 16.5741 12.9226C16.5741 13.5405 16.0805 13.9702 15.3526 13.9702ZM15.3526 10.7209C14.7382 10.7209 14.3014 10.3196 14.3014 9.74432C14.3014 9.17614 14.7311 8.78551 15.3526 8.78551C15.9705 8.78551 16.4037 9.17969 16.4037 9.74432C16.4037 10.3196 15.9634 10.7209 15.3526 10.7209Z" fill="black"/>
</svg>

<svg width="24" height="24" fill="none" xmlns="http://www.w3.org/2000/svg"><path fill-rule="evenodd" clip-rule="evenodd" d="M2 6.5A2.5 2.5 0 0 1 4.5 4h15A2.5 2.5 0 0 1 22 6.5v10a2.5 2.5 0 0 1-2.5 2.5h-15A2.5 2.5 0 0 1 2 16.5v-10zm2.5-.75a.75.75 0 0 0-.75.75v10c0 .414.336.75.75.75h15a.75.75 0 0 0 .75-.75v-10a.75.75 0 0 0-.75-.75h-15z" fill="#000"/><path d="M8.641 15.1c1.64 0 2.82-.878 2.823-2.057-.003-.909-.703-1.651-1.576-1.797v-.05a1.633 1.633 0 0 0 1.306-1.611c-.003-1.126-1.083-1.957-2.553-1.957-1.473 0-2.553.83-2.55 1.957a1.615 1.615 0 0 0 1.307 1.612v.05c-.887.145-1.58.887-1.576 1.796C5.818 14.223 7 15.1 8.642 15.1zm0-1.13c-.731 0-1.221-.433-1.221-1.047 0-.629.515-1.084 1.221-1.084.703 0 1.222.455 1.222 1.084 0 .617-.494 1.047-1.222 1.047zm0-3.25c-.614 0-1.05-.4-1.05-.976 0-.568.429-.958 1.05-.958.618 0 1.051.394 1.051.958 0 .576-.44.977-1.05.977zm6.712 4.38c1.64 0 2.82-.878 2.823-2.057-.004-.909-.703-1.651-1.577-1.797v-.05a1.633 1.633 0 0 0 1.307-1.611c-.004-1.126-1.083-1.957-2.553-1.957-1.474 0-2.554.83-2.55 1.957a1.615 1.615 0 0 0 1.307 1.612v.05c-.888.145-1.58.887-1.577 1.796-.004 1.18 1.179 2.056 2.82 2.056zm0-1.13c-.732 0-1.222-.433-1.222-1.047 0-.629.515-1.084 1.222-1.084.703 0 1.221.455 1.221 1.084 0 .617-.494 1.047-1.221 1.047zm0-3.25c-.615 0-1.052-.4-1.052-.976 0-.568.43-.958 1.052-.958.617 0 1.05.394 1.05.958 0 .576-.44.977-1.05.977z" fill="#000"/></svg>
